X:1
T:Vaart fedraland
T:Vaart fedraland
T:E. Blix
T:Agathe Backer Gröndahl
C:Agathe Backer Gröndahl
%%score [ ( 1 2 ) ( 3 4 ) ( 5 6 ) 7 ]
L:1/8
M:4/4
K:Bb
V:1 treble-8 nm="Tenor"
V:2 treble-8 
V:3 treble-8 nm="Tenor"
V:4 treble-8 
V:5 bass nm="Bass"
V:6 bass 
V:7 bass nm="Bass"
V:1
!f! F2 |: B2 B2 A2 A A | G2 G2 A2 F2 |!<(! (Bc) d e f2!<)! f f | g2 g2 d3 d | f2 f2 c3 c | %6
w: 1.Du|land som lyf- tar ditt|ho- vud bratt Fraa|Is- * ha- vet upp med din|kvi- te hatt, Med|hö- ge fjell, Der|
w: 2.|sit som dron- ning i|hög- sæt- stol Med|ly- * san- de aa- syn i|mid- nats- sol, So|frid og fin I|
w: 3.Du|land, som fe- der- ne|vann med frægd Og|byg- * de oss hei- mar i|lid og lægd, Dær|od- lad stend So|
w: 4.|land, statt sten- dig i|blö- ming blid. Til|det _ vil me stræ- va i|fred og strid: I|bu og bygd, I|
 e2 e2 d3 d | (dc)"^cresc." B c (dc) d =e | f2!<(! f2 (gf)!<)! (ga) |!f! b2 b2 a2 a a |1 %10
w: fos- sar fell Og|stork- * nar i stup _ og til|jök- lar svell, _ med _|hav som stor- man- de|
w: kvi- te lin, Naar|nord- * ly- se lei- * kar i|lok- ken din, _ naar _|fjel- let gyl- ler i|
w: kjær og kjend Vaar|fe- * dra- gaard enn _ i den|gam- le grend, _ Du _|land, som dreg med so|
w: tru og trygd Di|fram- * tid aa byg- * gja med|dug og dygd, _ Din _|fri- dom ver- ja mot|
 g2 g2 f2 d2 |!<(! e2 =e2 (f2!<)! b2) | b4 g4 | f2 (ed) e2 f2 |!ff! !fermata!f6!mf! F2 :|2 %15
w: 1.syng om strand, Me|el- skar deg, _|fa- gre,|fa- gre _ fe- dra-|land. 2.Du|
w: 3.dy- re band, Me|el- skar deg, _|fa- gre,|fa- gre _ fe- dra-|land. 4.Vaart|
w: |||||
w: |||||
 g2 g2 f2 f2 || f2 f2 ^f4 | g2"^ritard. al Fine." g2 (b2 ag) | f4 d4 | f2 (ed) e2 f2 | %20
w: 2.kvell- raud brand: Me|el- skar deg,|el- skar deg, _ _|fa- gre,|fa- gre _ fe- dra|
w: 4.fi- end- haand Og|el- ska deg,|el- ska deg, _ _|fa- gre,|fa- gre _ fe- dra-|
w: |||||
w: |||||
!ff! !fermata!b6 |] %21
w: land!|
w: land!|
w: |
w: |
V:2
 x2 |: x8 | x8 | x8 | x8 | x8 | x8 | x8 | x8 | x8 |1 x8 | x8 | x8 | x8 | x8 :|2 x8 || x8 | x8 | %18
 x8 | x6 A2 | B6 |] %21
V:3
!f! F2 |: F2 F2 F2 F F | F2 F2 F2 F2 |!<(! (FA) B c d2!<)! d d | ^c2 c2 d3 d | d2 d2 c3 c | %6
w: 1.Du|land som lyf- tar ditt|ho- vud bratt Fraa|Is- * ha- vet upp med din|kvi- te hatt, Med|hö- ge fjell, Der|
w: 2.|sit som dron- ning i|hög- sæt- stol Med|ly- * san- de aa- syn i|mid- nats- sol, So|frid og fin I|
w: 3.Du|land, som fe- der- ne|vann med frægd Og|byg- * de oss hei- mar i|lid og lægd, Dær|od- lad stend So|
w: 4.|land, statt sten- dig i|blö- ming blid. Til|det _ vil me stræ- va i|fred og strid: I|bu og bygd, I|
 c2 B2 A3 c | (BA)"^cresc." G A B2 B B | c2!<(! (AB) B2!<)! _e2 |!f! d2 =e2 e2 e e |1 %10
w: fos- sar fell Og|stork- * nar i stup og til|jök- lar _ svell, med|hav som stor- man- de|
w: kvi- te lin, Naar|nord- * ly- se lei- kar i|lok- ken _ din, naar|fjel- let gyl- ler i|
w: kjær og kjend Vaar|fe- * dra- gaard enn i den|gam- le _ grend, Du|land, som dreg med so|
w: tru og trygd Di|fram- * tid aa byg- gja med|dug og _ dygd, Din|fri- dom ver- ja mot|
 =e2 e2 d2 =B2 |!<(! c2 _B2 (B2!<)! ^f2) | g4 e4 | c2 B2 B2 c2 |!ff! !fermata!c6!mf! F2 :|2 %15
w: 1.syng om strand, Me|el- skar deg, _|fa- gre,|fa- gre fe- dra-|land. 2.Du|
w: 3.dy- re band, Me|el- skar deg, _|fa- gre,|fa- gre fe- dra-|land. 4.Vaart|
w: |||||
w: |||||
 =e2 e2 d2 A2 || B2 B2 d4 | e2"^ritard. al Fine." e2 (g2 fe) | c4 B4 | c2 c2 B2 c2 | %20
w: 2.kvell- raud brand: Me|el- skar deg,|el- skar deg, _ _|fa- gre,|fa- gre fe- dra|
w: 4.fi- end- haand Og|el- ska deg,|el- ska deg, _ _|fa- gre,|fa- gre fe- dra-|
w: |||||
w: |||||
!ff! !fermata!d6 |] %21
w: land!|
w: land!|
w: |
w: |
V:4
 x2 |: x8 | x8 | x8 | x8 | x8 | x8 | x8 | x8 | x8 |1 x8 | x8 | x8 | x8 | x8 :|2 x8 || x8 | x8 | %18
 x8 | x6 F2 | F6 |] %21
V:5
!f! F,2 |: F,2 F,2 E,2 E, E, | E,2 E,2 E,2 E,2 |!<(! (D,F,) B, B, B,2!<)! B, B, | B,2 B,2 B,3 B, | %5
w: 1.Du|land som lyf- tar ditt|ho- vud bratt Fraa|Is- * ha- vet upp med din|kvi- te hatt, Med|
w: 2.|sit som dron- ning i|hög- sæt- stol Med|ly- * san- de aa- syn i|mid- nats- sol, So|
w: 3.Du|land, som fe- der- ne|vann med frægd Og|byg- * de oss hei- mar i|lid og lægd, Dær|
w: 4.|land, statt sten- dig i|blö- ming blid. Til|det _ vil me stræ- va i|fred og strid: I|
 A,2 A,2 _A,3 A, | G,2 G,2 ^F,3 D, | D,2"^cresc." D, D, D,2 D, _D, | %8
w: hö- ge fjell, Der|fos- sar fell Og|stork- nar i stup og til|
w: frid og fin I|kvi- te lin, Naar|nord- ly- se lei- kar i|
w: od- lad stend So|kjær og kjend Vaar|fe- dra- gaard enn i den|
w: bu og bygd, I|tru og trygd Di|fram- tid aa byg- gja med|
 (C,D,)!<(! (E,E,) E,2!<)! (B,C) |!f! B,2 D2 ^C2 C C |1 B,2 B,2 A,2 G,2 | %11
w: jök- * lar _ svell, med _|hav som stor- man- de|1.syng om strand, Me|
w: lok- * ken _ din, naar _|fjel- let gyl- ler i|3.dy- re band, Me|
w: gam- * le _ grend, Du _|land, som dreg med so||
w: dug _ og _ dygd, Din _|fri- dom ver- ja mot||
!<(! G,2 G,2 (F,2!<)! D2) | E4 B,4 | A,2 G,2 G,2 A,2 |!ff! !fermata!A,6!mf! F,2 :|2 %15
w: el- skar deg, _|fa- gre,|fa- gre fe- dra-|land. 2.Du|
w: el- skar deg, _|fa- gre,|fa- gre fe- dra-|land. 4.Vaart|
w: ||||
w: ||||
 B,2 B,2 A,2 E,2 || F,2 F,2 B,4 | B,2"^ritard. al Fine." B,2 (G,2 A,B,) | A,4 B,4 | %19
w: 2.kvell- raud brand: Me|el- skar deg,|el- skar deg, _ _|fa- gre,|
w: 4.fi- end- haand Og|el- ska deg,|el- ska deg, _ _|fa- gre,|
w: ||||
w: ||||
 G,2 G,2 G,2 A,2 |!ff! !fermata!F,6 |] %21
w: fa- gre fe- dra|land!|
w: fa- gre fe- dra-|land!|
w: ||
w: ||
V:6
 x2 |: x8 | x8 | x8 | x8 | x8 | x8 | x8 | x8 | x8 |1 x8 | x8 | x8 | x8 | x8 :|2 x8 || x8 | x8 | %18
 x8 | x6 E,2 | D,6 |] %21
V:7
!f! F,2 |: D,2 D,2 C,2 C, C, | B,,2 B,,2 C,2 E,2 |!<(! (D,F,) B, G, F,2!<)! F, F, | %4
w: 1.Du|land som lyf- tar ditt|ho- vud bratt Fraa|Is- * ha- vet upp med din|
w: 2.|sit som dron- ning i|hög- sæt- stol Med|ly- * san- de aa- syn i|
w: 3.Du|land, som fe- der- ne|vann med frægd Og|byg- * de oss hei- mar i|
w: 4.|land, statt sten- dig i|blö- ming blid. Til|det _ vil me stræ- va i|
 E,2 E,2 G,3 G, | D,2 D,2 F,3 F, | C,2 C,2 D,3 D, | G,,2"^cresc." G,, G,, G,,2 G,, G,, | %8
w: kvi- te hatt, Med|hö- ge fjell, Der|fos- sar fell Og|stork- nar i stup og til|
w: mid- nats- sol, So|frid og fin I|kvi- te lin, Naar|nord- ly- se lei- kar i|
w: lid og lægd, Dær|od- lad stend So|kjær og kjend Vaar|fe- dra- gaard enn i den|
w: fred og strid: I|bu og bygd, I|tru og trygd Di|fram- tid aa byg- gja med|
 (A,,B,,)!<(! (C,D,) E,2!<)! (E,^F,) |!f! G,2 G,2 A,2 A, A, |1 ^C,2 C,2 D,2 F,2 | %11
w: jök- * lar _ svell, med _|hav som stor- man- de|1.syng om strand, Me|
w: lok- * ken _ din, naar _|fjel- let gyl- ler i|3.dy- re band, Me|
w: gam- * le _ grend, Du _|land, som dreg med so||
w: dug _ og _ dygd, Din _|fri- dom ver- ja mot||
!<(! E,2 ^C,2 (D,2!<)! B,,2) | E,4 E,4 | F,2 G,2 C,2 F,,2 |!ff! !fermata!F,,6!mf! F,2 :|2 %15
w: el- skar deg, _|fa- gre,|fa- gre fe- dra-|land. 2.Du|
w: el- skar deg, _|fa- gre,|fa- gre fe- dra-|land. 4.Vaart|
w: ||||
w: ||||
 ^C,2 C,2 D,2 C,2 || D,2 D,2 B,,4 | E,2"^ritard. al Fine." E,2 E,4 | F,4 G,4 | C,2 C,2 F,,2 F,,2 | %20
w: 2.kvell- raud brand: Me|el- skar deg,|el- skar deg,|fa- gre,|fa- gre fe- dra|
w: 4.fi- end- haand Og|el- ska deg,|el- ska deg,|fa- gre,|fa- gre fe- dra-|
w: |||||
w: |||||
!ff! !fermata!B,,6 |] %21
w: land!|
w: land!|
w: |
w: |

